icons/glyphs/glyph-babe.svg

<?xml version="1.0" encoding="UTF-8" standalone="no"?><svg height="16" viewBox="0 0 4.2333332 4.2333332" width="16" xmlns="http://www.w3.org/2000/svg"><sodipodi:namedview/><metadata><rdf:RDF><cc:Work><dc:format>image/svg+xml</dc:format><dc:type/><dc:title/></cc:Work></rdf:RDF></metadata><path d="m .92604165.66145837v.39687493h.66145825v-.39687493zm1.71979155 0v .39687493h.6614583v-.39687493zm-2.6458332.2645833v.39687493h.66145829v-.39687493zm3.5718749 0v .39687493h.6614583v-.39687493zm-1.7859375.26458323v.396875h.6614583v-.396875zm-.85989575.1322917v.396875h.66145825v-.396875zm1.71979155 0v .396875h.6614583v-.396875zm-2.6458332.2645833v.396875h.6614583v-.396875zm3.5718749 0v .396875h.6614583v-.396875zm-1.7859375.2645833v.396875h.6614583v-.396875zm-.85989575.1322917v.3968749h.66145825v-.3968749zm1.71979155 0v .3968749h.6614583v-.3968749zm-2.6458332.2645833v.3968751h.66145829v-.3968751zm3.5718749 0v .3968751h.6614583v-.3968751zm-1.7859375.2645833v.396875h.6614583v-.396875zm-.85989575.1322918v.3968748h.66145825v-.3968748zm1.71979155 0v .3968748h.6614583v-.3968748zm-.8598958.5291665v.396875h.6614583v-.396875z" fill="#d0d0d0"/></svg>

<?xml version="1.0" encoding="UTF-8" standalone="no"?>
<!-- Created with Inkscape (http://www.inkscape.org/) -->

<svg
   xmlns:dc="http://purl.org/dc/elements/1.1/"
   xmlns:cc="http://creativecommons.org/ns#"
   xmlns:rdf="http://www.w3.org/1999/02/22-rdf-syntax-ns#"
   xmlns:svg="http://www.w3.org/2000/svg"
   xmlns="http://www.w3.org/2000/svg"
   xmlns:sodipodi="http://sodipodi.sourceforge.net/DTD/sodipodi-0.dtd"
   xmlns:inkscape="http://www.inkscape.org/namespaces/inkscape"
   width="16"
   height="16"
   viewBox="0 0 4.2333332 4.2333332"
   version="1.1"
   id="svg8"
   inkscape:version="0.92+devel (4546dc857e, 2017-07-25, custom)"
   sodipodi:docname="glyph-babe.svg">
  <defs
     id="defs2" />
  <sodipodi:namedview
     id="base"
     pagecolor="#002466"
     bordercolor="#ffffff"
     borderopacity="0.38039216"
     inkscape:pageopacity="1"
     inkscape:pageshadow="2"
     inkscape:zoom="18.208"
     inkscape:cx="10.094581"
     inkscape:cy="7.9162778"
     inkscape:document-units="px"
     inkscape:current-layer="svg8"
     inkscape:document-rotation="0"
     showgrid="false"
     inkscape:showpageshadow="false"
     borderlayer="true"
     inkscape:window-width="1920"
     inkscape:window-height="1051"
     inkscape:window-x="0"
     inkscape:window-y="0"
     inkscape:window-maximized="1"
     units="px" />
  <metadata
     id="metadata5">
    <rdf:RDF>
      <cc:Work
         rdf:about="">
        <dc:format>image/svg+xml</dc:format>
        <dc:type
           rdf:resource="http://purl.org/dc/dcmitype/StillImage" />
        <dc:title></dc:title>
      </cc:Work>
    </rdf:RDF>
  </metadata>
  <path
     inkscape:connector-curvature="0"
     id="rect3834-3-39-6"
     d="M 0.92604165,0.66145837 V 1.0583333 H 1.5874999 V 0.66145837 Z m 1.71979155,0 V 1.0583333 H 3.3072915 V 0.66145837 Z M 0,0.92604167 V 1.3229166 H 0.66145829 V 0.92604167 Z m 3.5718749,0 V 1.3229166 H 4.2333332 V 0.92604167 Z M 1.7859374,1.1906249 v 0.396875 H 2.4473957 V 1.1906249 Z M 0.92604165,1.3229166 v 0.396875 H 1.5874999 v -0.396875 z m 1.71979155,0 v 0.396875 H 3.3072915 V 1.3229166 Z M 0,1.5874999 v 0.396875 h 0.6614583 v -0.396875 z m 3.5718749,0 v 0.396875 H 4.2333332 V 1.5874999 Z M 1.7859374,1.8520832 v 0.396875 H 2.4473957 V 1.8520832 Z M 0.92604165,1.9843749 V 2.3812498 H 1.5874999 V 1.9843749 Z m 1.71979155,0 V 2.3812498 H 3.3072915 V 1.9843749 Z M 0,2.2489582 V 2.6458333 H 0.66145829 V 2.2489582 Z m 3.5718749,0 V 2.6458333 H 4.2333332 V 2.2489582 Z M 1.7859374,2.5135415 v 0.396875 H 2.4473957 V 2.5135415 Z M 0.92604165,2.6458333 V 3.0427081 H 1.5874999 V 2.6458333 Z m 1.71979155,0 V 3.0427081 H 3.3072915 V 2.6458333 Z M 1.7859374,3.1749998 v 0.396875 h 0.6614583 v -0.396875 z"
     style="color:#000000;display:inline;overflow:visible;visibility:visible;fill:#d0d0d0;fill-opacity:1;fill-rule:nonzero;stroke:none;stroke-width:0.30080548;marker:none;enable-background:accumulate"
     inkscape:label="#" />
</svg>
